!!!!SEGMENT: pl-kk--kk-i-1--006-003_morales-cristobal-de--missa-ave-maria-patrem.krn
!!!cenid: 15xx:680
!!!COM: Morales, Cristóbal de
!!!COM-rismid: pe30002254
!!!CDT:
!!!CNT:
!!!OPR: [Missa] Ave Maria
!!!OTL: Patrem
!!!OMV: 003
!!!PDT:
!!!AGN:
!!!SMS-siglum: PL-Kk
!!!SMS-shelfmark: Kk.I.1
!!!SMS-shelfwork: 006-003 M
!!!SMS-variant:
!!!SMS-altvar:
!!!NIFC-rismid: 300257960
!!!URL-scan: http://repozytorium.nifc.pl/skany/pl-kk-nut--i-1
!!!ONB-nifc: UWAGA: Cantus (s. 41v-52v, skan 0044-0055), Altus (s. 43r-52r, skan 0235-0244), Tenor (s. 42r-51r, skan 0430-0439), Bassus (s. 40v-50v, skan 0602-0612). Części Mszy: 1. Kyrie, 2. Et in terra, 3. Patrem, 4. Sanctus, 5. Agnus Dei
**kern	**text	**kern	**text	**kern	**text	**kern	**text
*part4	*part4	*part3	*part3	*part2	*part2	*part1	*part1
*staff4	*staff4	*staff3	*staff3	*staff2	*staff2	*staff1	*staff1
*Iempty	*	*Itenor	*	*Iempty	*	*Iempty	*
*I"BASSVS	*	*I"TENOR	*	*I"ALTVS	*	*I"CANTVS	*
*I'B	*	*I'T	*	*I'A	*	*I'C	*
*ICvox	*	*ICvox	*	*ICvox	*	*ICvox	*
*M2/1	*	*M2/1	*	*M2/1	*	*M2/1	*
*met(C|)	*	*met(C|)	*	*met(C|)	*	*met(C|)	*
*clefF4	*	*clefC4	*	*clefC4	*	*clefC3	*
*k[b-]	*	*k[b-]	*	*k[b-]	*	*k[b-]	*
*F:	*	*F:	*	*F:	*	*F:	*
=1-	=1-	=1-	=1-	=1-	=1-	=1-	=1-
00r	.	00r	.	00r	.	0d\	Pa-
=2-	=2-	=2-	=2-	=2-	=2-	=2-	=2-
.	.	.	.	.	.	0e\	.
=3-	=3-	=3-	=3-	=3-	=3-	=3-	=3-
0r	.	0B-\	Pa-	00r	.	1.d\	-tre(m)
.	.	.	.	.	.	2G/	om-
=4-	=4-	=4-	=4-	=4-	=4-	=4-	=4-
!LO:TX:a:t=2	!	!	!	!	!	!	!
0D\	Pa-	0F/	-tre(m)	.	.	2A/	-ni-
.	.	.	.	.	.	2B-/	.
.	.	.	.	.	.	2A/	-po-
.	.	.	.	.	.	1d\	-ten-
=5-	=5-	=5-	=5-	=5-	=5-	=5-	=5-
!LO:TX:a:t=2	!	!	!	!	!	!	!
0E\	.	1G/	om-	00r	.	.	.
.	.	.	.	.	.	4c/	.
.	.	.	.	.	.	4B-/	.
.	.	1G/	-ni-	.	.	2c/	.
.	.	.	.	.	.	1B-/	.
=6-	=6-	=6-	=6-	=6-	=6-	=6-	=6-
*lig	*	*	*	*	*	*	*
1D\	-trem	1d\	-po-	.	.	.	.
.	.	.	.	.	.	2.A/	.
1C/	.	1e\	-te(n)-	.	.	.	.
.	.	.	.	.	.	4G/	.
.	.	.	.	.	.	1G/	.
*Xlig	*	*	*	*	*	*	*
=7-	=7-	=7-	=7-	=7-	=7-	=7-	=7-
*	*	*	*	*lig	*	*	*
1D\	.	00d\	-te(m),	1A\	Pa-	.	.
*	*	*	*	*	*	*custos:G	*
.	.	.	.	.	.	2F/	.
!	!	!	!	!	!	!LO:PB:g=original	!
4GG/	om-	.	.	1B-\	.	2G/	-tem,
4AA/	.	.	.	.	.	.	.
*	*	*	*	*	*	*	*ij
4BB-/	.	.	.	.	.	1g\	om-
4C/	.	.	.	.	.	.	.
*	*	*	*	*Xlig	*	*	*
=8-	=8-	=8-	=8-	=8-	=8-	=8-	=8-
1.D\	-ni-	.	.	1.A\	-trem	.	.
.	.	.	.	.	.	4f\	.
.	.	.	.	.	.	4e\	.
.	.	.	.	.	.	2f\	-ni-
2D/	-po-	.	.	2F/	om-	1d\	-po-
=9-	=9-	=9-	=9-	=9-	=9-	=9-	=9-
2BB-/	-ten-	0r	.	2G/	-ni-	.	.
2C/	.	.	.	2.A/	-po-	2c/	.
1E\	-te(m),	.	.	.	.	2.B-/	ten -
.	.	.	.	4G/	.	.	.
.	.	.	.	1G/	.	.	.
.	.	.	.	.	.	8A/L	.
.	.	.	.	.	.	8G/J	.
=10-	=10-	=10-	=10-	=10-	=10-	=10-	=10-
1D\	.	1d\	Fac-	.	.	1A/	.
.	.	.	.	2F/	-ten-	.	.
*custos:C	*	*	*	*	*	*	*
1GG/	fa-	1d\	-to-	1G/	-te(m)	2G/	-tem
*	*	*	*	*	*	*	*Xij
.	.	.	.	.	.	2g\	fac-
!LO:LB:g=original	!	!	!	!	!	!	!
=11-	=11-	=11-	=11-	=11-	=11-	=11-	=11-
1C/	-cto-	1c\	-re(m)	2.E/	fa-	2.g\	   to-
.	.	.	.	4F/	.	4f\	-re(m)
2C/	-re(m)	1c\	ce-	2G/	-cto-	2e\	c(ae)-
*	*	*	*	*custos:G	*	*	*
2C/	ce-	.	.	2G/	-re(m)	2e\	-li
!	!	!	!	!LO:LB:g=original	!	!	!
=12-	=12-	=12-	=12-	=12-	=12-	=12-	=12-
2GG/	-li	1B-\	-li	1G/	c(ae)-	1d\	et
2GG/	et	.	.	.	.	.	.
*	*	*custos:c	*	*	*	*	*
1D\	ter-	1B-\	et	1F/	-li	1d\	ter-
!	!	!LO:LB:g=original	!	!	!	!	!
=13-	=13-	=13-	=13-	=13-	=13-	=13-	=13-
2.C/	.	0c\	ter-	2A/	et	1e\	-re;
.	.	.	.	2.G/	.	.	.
4BB-/	.	.	.	.	.	.	.
*	*	*	*	*	*	*custos:A	*
1AA/	.	.	.	.	.	2r	.
.	.	.	.	4F/	.	.	.
!	!	!	!	!	!	!LO:LB:g=original	!
.	.	.	.	4F/	.	2A/	Vi-
.	.	.	.	4E/	ter-	.	.
=14-	=14-	=14-	=14-	=14-	=14-	=14-	=14-
2GG/	-re	0d\	-r(ae),	1G/	-re;	4B-/	-ſi-
.	.	.	.	.	.	4A/	.
1G\	ui-	.	.	.	.	4B-/	.
.	.	.	.	.	.	4c/	.
.	.	.	.	1r	.	4d/	.
.	.	.	.	.	.	4e\	.
4F\	.	.	.	.	.	2.f\	-bi-
4E\	.	.	.	.	.	.	.
=15-	=15-	=15-	=15-	=15-	=15-	=15-	=15-
2D/	-ſi-	0r	.	2.A/	vi-	.	.
.	.	.	.	.	.	4d\	.
2D/	-bi-	.	.	.	.	2f\	-li-
.	.	.	.	4B-\	-vi-	.	.
1C/	-li-	.	.	2c\	-bi-	2e\	-u(m)
.	.	.	.	2c\	-li-	1g\	.
=16-	=16-	=16-	=16-	=16-	=16-	=16-	=16-
1G\	-u(m)	0d\	Et	1B-\	-um	.	.
.	.	.	.	.	.	2d/	.
2.D/	om-	.	.	1.A\	.	1.f\	om-
4E\	.	.	.	.	.	.	.
=17-	=17-	=17-	=17-	=17-	=17-	=17-	=17-
2F\	.	0c\	in-	.	.	.	.
*custos:F	*	*	*	*	*	*	*
1C/	.	.	.	4G/	.	4e\	.
.	.	.	.	4F/	.	4d\	.
*	*	*	*	*custos:A	*	*	*
.	.	.	.	2G/	om-	2e\	.
!LO:LB:g=original	!	!	!	!LO:PB:g=original	!	!	!
2.F\	.	.	.	2.A/	-ni-	1f\	-ni-
=18-	=18-	=18-	=18-	=18-	=18-	=18-	=18-
.	.	1c\	-ui-	.	.	.	.
4E\	.	.	.	4G/	-um	.	.
2C/	.	.	.	2G/	.	2e\	-um,
2D/	-ni-	1B-\	-ſi-	2F/	.	2d/	.
*	*	*	*	*	*	*custos:e	*
2GG/	-u(m)	.	.	1G/	Et	2d/	et
!	!	!	!	!	!	!LO:LB:g=original	!
=19-	=19-	=19-	=19-	=19-	=19-	=19-	=19-
2.C/	et	1c\	-bi-	.	.	2.e\	in-
.	.	.	.	2A/	in-	.	.
4D/	.	.	.	.	.	4f\	.
2E\	in-	1c\	-li-	2G/	-ui-	2g\	-ui-
2F\	-ui-	.	.	2A/	-ſi-	2f\	-ſi-
=20-	=20-	=20-	=20-	=20-	=20-	=20-	=20-
2G\	-ſi-	00G/	-um,	2B-/	-bi-	2d/	-bi-
1C/	-bi-	.	.	2c\	-li-	2.e\	.
.	.	.	.	2C/	-um;	.	.
.	.	.	.	.	.	4d\	.
2BB-/	.	.	.	2D/	.	1d\	.
=21-	=21-	=21-	=21-	=21-	=21-	=21-	=21-
1C/	-li-	.	.	1E/	.	.	.
.	.	.	.	.	.	2c/	-li-
1GG/	-um,	.	.	2D/	Et	2.d\	-um
.	.	.	.	1d\	in	.	.
.	.	.	.	.	.	4c/	.
=22-	=22-	=22-	=22-	=22-	=22-	=22-	=22-
1G\	Et	0r	.	.	.	4B-/	.
.	.	.	.	.	.	4A/	.
.	.	.	.	2B-/	.	1G/	.
2E\	in	.	.	2.c\	u-	.	.
1F\	u-	.	.	.	.	2A/	.
.	.	.	.	4B-\	-num	.	.
=23-	=23-	=23-	=23-	=23-	=23-	=23-	=23-
.	.	1c\	Ie-	2A/	.	2F/	.
2E\	-nu(m)	.	.	2G/	do-	2G/	.
2F\	do-	1c\	-ſu(m)	1A\	-mi-	2F/	.
*custos:B-	*	*	*	*	*	*	*
2F\	-mi-	.	.	.	.	1f\	Et
!LO:PB:g=original	!	!	!	!	!	!	!
=24-	=24-	=24-	=24-	=24-	=24-	=24-	=24-
*	*	*	*	*custos:A	*	*	*
1BB-/	-nu(m)	0.d\	Chri-	0B-\	-nu(m)	.	.
.	.	.	.	.	.	2g\	in
2.BB-/	Ie-	.	.	.	.	2f\	u-
*	*	*	*	*	*	*custos:f	*
.	.	.	.	.	.	2d/	-nu(m)
4C/	-ſum	.	.	.	.	.	.
!	!	!	!	!LO:LB:g=original	!	!LO:LB:g=original	!
=25-	=25-	=25-	=25-	=25-	=25-	=25-	=25-
2D/	.	.	.	2A/	.	1.f\	do-
2BB-/	.	.	.	2.B-/	Ie-	.	.
1F\	Chr(i-	1c\	.	.	.	.	.
.	.	.	.	4A/	.	.	.
.	.	.	.	2A/	-ſum	2f\	-mi-
=26-	=26-	=26-	=26-	=26-	=26-	=26-	=26-
1BB-/	-stu)m	0B-\	-ſtu(m),	1B-\	Chri-	1f\	-nu(m)
*	*ij	*	*	*	*	*	*
1.E\	Ie-	.	.	1.G/	.	1.g\	Ie-
=27-	=27-	=27-	=27-	=27-	=27-	=27-	=27-
.	.	1r	.	.	.	.	.
2D/	-ſum	.	.	2A/	.	2f\	-ſu(m)
1D\	Chr(i-	1B-\	fi-	1F/	-ſtum;	1.f\	.
=28-	=28-	=28-	=28-	=28-	=28-	=28-	=28-
1C/	.	2c\	-li-	1G/	.	.	.
*	*	*custos:c	*	*	*	*	*
.	.	2c\	-um	.	.	4e\	Chr(i-
.	.	.	.	.	.	4d\	.
!	!	!LO:LB:g=original	!	!	!	!	!
1C/	-stu)m	1c\	De-	2r	.	1e\	-stu)m,
*	*Xij	*	*	*	*	*	*
.	.	.	.	2G/	fi-	.	.
=29-	=29-	=29-	=29-	=29-	=29-	=29-	=29-
1GG/	fi-	0B-\	-i	2G/	-li-	1d\	.
.	.	.	.	2G/	-um	.	.
2.BB-/	-li-	.	.	2D/	De-	2r	.
.	.	.	.	2.F/	-i	2d\	fi-
4C/	-u(m)	.	.	.	.	.	.
=30-	=30-	=30-	=30-	=30-	=30-	=30-	=30-
2.D/	De-	1A\	u-	.	.	2d\	-li-
.	.	.	.	4G/	u-	.	.
.	.	.	.	2.A/	-ni-	2d\	-um
4E/	-i,	.	.	.	.	.	.
*custos:C	*	*	*	*	*	*	*
1F\	.	1A\	-ni-	.	.	1c\	De-
.	.	.	.	4B-\	.	.	.
.	.	.	.	1c\	.	.	.
!LO:LB:g=original	!	!	!	!	!	!	!
=31-	=31-	=31-	=31-	=31-	=31-	=31-	=31-
1r	.	1G/	-ge-	.	.	1d\	-i
.	.	.	.	2B-\	-ge-	.	.
*	*	*	*	*custos:A	*	*	*
1C/	u-	1G/	-ni-	1c\	.	1e\	u-
!	!	!	!	!LO:LB:g=original	!	!	!
=32-	=32-	=32-	=32-	=32-	=32-	=32-	=32-
1.D\	-ni-	0F/	-tu(m),	1A\	.	2d\	-ni-
.	.	.	.	.	.	2.f\	-ge-
.	.	.	.	2A/	.	.	.
*	*	*	*	*	*	*custos:d	*
.	.	.	.	.	.	4e\	.
!	!	!	!	!	!	!LO:PB:g=original	!
2BB-/	-ge-	.	.	2.B-/	.	1d\	.
=33-	=33-	=33-	=33-	=33-	=33-	=33-	=33-
0E\	-ni-	0r	.	.	.	.	.
.	.	.	.	4A/	.	.	.
.	.	.	.	4G/	.	4c/	-ni-
.	.	.	.	4F/	.	4B-/	-tum
.	.	.	.	4G/	.	1c\	.
.	.	.	.	4A/	.	.	.
.	.	.	.	1G/	.	.	.
=34-	=34-	=34-	=34-	=34-	=34-	=34-	=34-
1D\	-tu(m),	1A\	e(t)	.	.	2r	.
.	.	.	.	2F/	.	2d/	Et
1r	.	1B-\	ex	1G/	-ni-	2d/	.
.	.	.	.	.	.	2B-/	ex
=35-	=35-	=35-	=35-	=35-	=35-	=35-	=35-
2r	.	1A\	p(at)-	0F/	-tum;	2c/	pa-
2D/	et	.	.	.	.	2.d\	-tre
2D/	ex	1B-\	-re	.	.	.	.
.	.	.	.	.	.	4e\	na-
2BB-/	p(at)-	.	.	.	.	4f\	.
.	.	.	.	.	.	4d\	.
=36-	=36-	=36-	=36-	=36-	=36-	=36-	=36-
2C/	-re	1A\	na-	2r	.	2e\	.
2D/	na-	.	.	2d\	Et	2f\	.
2GG/	-tu(m)	1G/	-tu(m),	2d\	.	2g\	.
2G\	.	.	.	2B-\	ex	2d\	.
=37-	=37-	=37-	=37-	=37-	=37-	=37-	=37-
4F\	na-	1r	.	2c\	p(at)-	2.f\	.
4E\	.	.	.	.	.	.	.
4D/	.	.	.	2.d\	-re	.	.
4C/	.	.	.	.	.	4e\	.
1BB-/	-tu(m),	1B-\	an-	.	.	1d\	.
.	.	.	.	4c\	na-	.	.
.	.	.	.	1B-\	.	.	.
=38-	=38-	=38-	=38-	=38-	=38-	=38-	=38-
*	*	*	*	*	*	*custos:B-	*
1r	.	1F/	-te	.	.	1c\	-tum
.	.	.	.	2A/	.	.	.
*	*	*	*	*custos:F	*	*	*
2.E\	an-	1G/	om-	1B-\	-tum;	1r	.
*custos:E	*	*	*	*	*	*	*
4E\	-te	.	.	.	.	.	.
!LO:LB:g=original	!	!	!	!LO:LB:g=original	!	!LO:LB:g=original	!
=39-	=39-	=39-	=39-	=39-	=39-	=39-	=39-
2E\	om-	2G/	-(n)i-	1r	.	2.B-/	an-
*	*	*custos:d	*	*	*	*	*
2E\	-ni-	2G/	-a	.	.	.	.
.	.	.	.	.	.	4B-/	-te
!	!	!LO:PB:g=original	!	!	!	!	!
1BB-/	-a	0d\	ſe-	2.F/	an-	2B-/	om-
.	.	.	.	.	.	2B-/	-ni-
.	.	.	.	4F/	-te	.	.
=40-	=40-	=40-	=40-	=40-	=40-	=40-	=40-
1D\	ſe-	.	.	2F/	om-	1A/	-a
.	.	.	.	2F/	-ni-	.	.
0C/	-cu-	0e\	-cu-	2G/	-a	1.c\	ſe-
.	.	.	.	2.A/	ſe-	.	.
=41-	=41-	=41-	=41-	=41-	=41-	=41-	=41-
.	.	.	.	4G/	.	.	.
.	.	.	.	1G/	-cu-	2B-/	-cu-
1D\	-la,	1d\	-la,	.	.	1A/	-la
.	.	.	.	2F/	-la	.	.
=42-	=42-	=42-	=42-	=42-	=42-	=42-	=42-
2r	.	1r	.	2G/	.	1G/	.
2G\	De-	.	.	2B-\	De-	.	.
2G\	-u(m)	1d\	De-	2B-\	-um	1r	.
2D/	De-	.	.	2A/	de	.	.
=43-	=43-	=43-	=43-	=43-	=43-	=43-	=43-
2F\	.	2c\	-u(m)	2A/	De-	2r	.
2G\	.	2B-/	de	2G/	-o;	2d\	lu-
1E\	-De-	1c\	De-	2r	.	2e\	-men
.	.	.	.	2G/	lu-	2e\	.
=44-	=44-	=44-	=44-	=44-	=44-	=44-	=44-
1D\	-o;	0d\	-o,	2A/	.	2.f\	de
.	.	.	.	2A/	-me(n)	.	.
.	.	.	.	.	.	4e\	lu-
1r	.	.	.	2.B-\	de	2d\	-mi-
.	.	.	.	.	.	2f\	.
*	*	*	*	*custos:G	*	*	*
.	.	.	.	4A/	lu-	.	.
!	!	!	!	!LO:PB:g=original	!	!	!
=45-	=45-	=45-	=45-	=45-	=45-	=45-	=45-
1r	.	2r	.	2G/	.	2e\	.
.	.	2d\	lu-	2B-/	.	2.d\	.
2r	.	2e\	.	1A\	-mi-	.	.
*	*	*	*	*	*	*custos:c	*
.	.	.	.	.	.	4c/	.
!	!	!	!	!	!	!LO:LB:g=original	!
2A\	lu-	2e\	-men	.	.	2c/	-ne
=46-	=46-	=46-	=46-	=46-	=46-	=46-	=46-
2A\	-me(n)	2.f\	.	1D/	-ne;	0d\	.
2A\	de	.	.	.	.	.	.
.	.	4e\	de	.	.	.	.
2.B-\	.	2d\	lu-	1r	.	.	.
.	.	2f\	-mi-	.	.	.	.
*custos:G	*	*	*	*	*	*	*
4A\	lu-	.	.	.	.	.	.
!LO:LB:g=original	!	!	!	!	!	!	!
=47-	=47-	=47-	=47-	=47-	=47-	=47-	=47-
2G\	.	2e\	-ne	2r	.	1r	.
*	*	*	*ij	*	*	*	*
2B-\	.	2.d\	lu-	2d\	De-	.	.
1A\	-mi-	.	.	1e\	-um	2r	.
.	.	4c\	.	.	.	.	.
*	*	*custos:d	*	*	*	*	*
.	.	2c\	-mi	.	.	2A/	De-
*	*	*	*Xij	*	*	*	*
!	!	!LO:LB:g=original	!	!	!	!	!
=48-	=48-	=48-	=48-	=48-	=48-	=48-	=48-
1D\	-ne,	0d\	ne,	2.f\	.	1A/	-um
.	.	.	.	4e\	ue-	.	.
1r	.	.	.	2d\	-ru(m)	2.B-/	ue-
.	.	.	.	2f\	.	.	.
.	.	.	.	.	.	4A/	.
=49-	=49-	=49-	=49-	=49-	=49-	=49-	=49-
2r	.	1r	.	2e\	de	2G/	-ru(m)
2G\	de	.	.	2.d\	de-	2.B-/	de
1G\	De-	0d\	de-	.	.	.	.
.	.	.	.	4c/	-o	4A/	.
.	.	.	.	4B-/	.	4B-/	.
.	.	.	.	4A/	.	4c/	.
=50-	=50-	=50-	=50-	=50-	=50-	=50-	=50-
2G\	-o	.	.	2B-/	.	4d\	.
.	.	.	.	.	.	4e\	.
2.F\	ue-	.	.	2.A/	.	1f\	De-
.	.	1c\	-De-	.	.	.	.
4E/	.	.	.	4G/	ue-	.	.
2C/	.	.	.	1G/	.	2e\	-o
=51-	=51-	=51-	=51-	=51-	=51-	=51-	=51-
1D\	-ro,	1B-\	-o	.	.	2d\	.
.	.	.	.	2F/	.	1f\	ue-
!	!	!	!	!LO:LB:g=original	!	!	!
0.C/	.	0c\	ue-	1G/	-ro;	.	.
.	.	.	.	.	.	4e\	.
.	.	.	.	.	.	4d\	.
=52-	=52-	=52-	=52-	=52-	=52-	=52-	=52-
*	*	*	*	*	*	*custos:d	*
.	.	.	.	2r	.	0e\	-ro
.	.	.	.	1c\	Ge-	.	.
.	.	0G/	-ro,	.	.	.	.
.	.	.	.	2c\	-ni-	.	.
!	!	!	!	!	!	!LO:LB:g=original	!
=53-	=53-	=53-	=53-	=53-	=53-	=53-	=53-
2r	.	.	.	2B-\	-tum	1d\	.
1G\	Ge-	.	.	2G/	.	.	.
.	.	1r	.	1B-\	no(n)-	2r	.
2G\	-ni-	.	.	.	.	1d\	Ge-
=54-	=54-	=54-	=54-	=54-	=54-	=54-	=54-
2F\	-tu(m)	0r	.	0A\	-fac-	.	.
2D/	no(n)	.	.	.	.	2d\	-ni-
*custos:C	*	*	*	*	*	*	*
1F\	fa-	.	.	.	.	2c/	-tu(m)
.	.	.	.	.	.	4A/	non
.	.	.	.	.	.	4B-/	.
!LO:PB:g=original	!	!	!	!	!	!	!
=55-	=55-	=55-	=55-	=55-	=55-	=55-	=55-
0C/	-ctu(m)	2r	.	1G/	-tu(m);	4c/	.
.	.	.	.	.	.	4d\	.
.	.	1c\	Ge-	.	.	2.e\	fa-
.	.	.	.	2r	.	.	.
.	.	.	.	.	.	4d\	.
.	.	2c\	-ni-	1G/	con-	2.c/	.
=56-	=56-	=56-	=56-	=56-	=56-	=56-	=56-
0r	.	2d\	-tu(m)	.	.	.	.
.	.	.	.	.	.	4B-/	.
.	.	2d\	no(n)	2D/	.	1B-/	.
.	.	1c\	fac-	2E/	-ſub-	.	.
.	.	.	.	2F/	-ſtan-	2A/	.
=57-	=57-	=57-	=57-	=57-	=57-	=57-	=57-
2r	.	0B-\	-tu(m),	2.G/	.	1B-/	-ctu(m)
1G\	con-	.	.	.	.	.	.
.	.	.	.	4A/	-ci-	.	.
.	.	.	.	4B-\	-a	1d\	.
.	.	.	.	4c\	.	.	.
2D/	.	.	.	2.d\	pa-	.	.
=58-	=58-	=58-	=58-	=58-	=58-	=58-	=58-
2E/	-ſub-	0r	.	.	.	2G/	con-
.	.	.	.	4c\	.	.	.
*	*	*	*	*custos:B-	*	*	*
2F\	.	.	.	2c\	.	2A/	-ſub-
!	!	!	!	!LO:LB:g=original	!	!	!
2.G\	-ſtan-	.	.	2.B-\	.	4B-/	-ſtan-
*	*	*	*	*	*	*custos:d	*
.	.	.	.	.	.	4c/	.
!	!	!	!	!	!	!LO:PB:g=original	!
.	.	.	.	.	.	2.d/	-ti-
4F\	-ci-	.	.	4A/	.	.	.
=59-	=59-	=59-	=59-	=59-	=59-	=59-	=59-
2E/	-a-	1r	.	2G/	.	.	.
.	.	.	.	.	.	4c/	-a-
2F\	-le(m)	.	.	2A/	.	2c/	-le(m)
1D\	p(at)-	1B-\	per	1F/	-tri	2d/	.
.	.	.	.	.	.	2f\	.
=60-	=60-	=60-	=60-	=60-	=60-	=60-	=60-
0C/	-ri,	2.c\	que(m)	0G/	per	2e\	pa-
.	.	.	.	.	.	4c/	.
.	.	4c\	om-	.	.	4d/	.
*	*	*custos:B-	*	*	*	*	*
.	.	2c\	-(n)i-	.	.	4e\	.
.	.	.	.	.	.	4f\	.
!	!	!LO:LB:g=original	!	!	!	!	!
.	.	2B-\	-a	.	.	2.e\	.
=61-	=61-	=61-	=61-	=61-	=61-	=61-	=61-
1r	.	1A\	fac-	1F/	.	.	.
.	.	.	.	.	.	4d/	.
.	.	.	.	.	.	1d\	.
2r	.	1G/	-ta	1E/	que(m)	.	.
2G\	per	.	.	.	.	2c/	.
=62-	=62-	=62-	=62-	=62-	=62-	=62-	=62-
2.A\	.	1F/	ſu(n)t,	4D/	om-	2d/	-tri
.	.	.	.	4E/	.	.	.
.	.	.	.	4F/	.	1c\	per
4A\	que(m)	.	.	4G/	.	.	.
2A\	om-	0r	.	2A/	.	.	.
2G\	.	.	.	2B-\	-ni-	2B-/	que(m)
=63-	=63-	=63-	=63-	=63-	=63-	=63-	=63-
1F\	-ni-	.	.	2c\	-a	1A/	om-
.	.	.	.	1d\	fac-	.	.
1E\	-a	2r	.	.	.	1G/	-(n)i-
*	*	*	*ij	*	*	*	*
.	.	2G/	per	2c\	.	.	.
=64-	=64-	=64-	=64-	=64-	=64-	=64-	=64-
2.D/	fa-	2.A/	que(m)	1d\	-ta	2F/	-a
*	*	*	*	*	*	*custos:e	*
.	.	.	.	.	.	1f\	fa-
*custos:F	*	*	*	*	*	*	*
4E/	.	4A/	om-	.	.	.	.
!LO:LB:g=original	!	!	!	!	!	!	!
2F\	.	2A/	-(n)i-	2.c\	.	.	.
!	!	!	!	!	!	!LO:LB:g=original	!
2C/	-cta	2G/	-a	.	.	2.e\	-cta
.	.	.	.	4B-\	ſunt:	.	.
=65-	=65-	=65-	=65-	=65-	=65-	=65-	=65-
*	*	*	*	*custos:A	*	*	*
1D\	.	1F/	fac-	1A\	.	.	.
.	.	.	.	.	.	4d\	.
.	.	.	.	.	.	1d\	.
!	!	!	!	!LO:LB:g=original	!	!	!
1AA/	ſu(n)t,	1E/	-ta	2r	.	.	.
.	.	.	.	1A\	qui	2c\	ſunt;
=66-	=66-	=66-	=66-	=66-	=66-	=66-	=66-
2r	.	1D/	ſu(n)t	.	.	0d\	.
*	*	*	*Xij	*	*	*	*
2A\	Qui	.	.	2F/	.	.	.
2G\	.	1r	.	2G/	prop-	.	.
2F\	pro-	.	.	2A/	.	.	.
=67-	=67-	=67-	=67-	=67-	=67-	=67-	=67-
1G\	.	1d\	qui	2.B-\	-ter	0r	.
.	.	.	.	4A/	.	.	.
2D/	-pter	2d\	prop-	2F/	nos	.	.
2.F\	nos	1c\	.	2.A/	ho-	.	.
=68-	=68-	=68-	=68-	=68-	=68-	=68-	=68-
.	.	.	.	.	.	1r	.
4E/	.	.	.	4G/	.	.	.
2C/	.	2c\	-ter	2.G/	.	.	.
2.D/	ho-	2B-\	.	.	.	1d\	Qui-
.	.	.	.	4F/	.	.	.
.	.	2.A/	nos	1F/	.	.	.
4C/	.	.	.	.	.	.	.
=69-	=69-	=69-	=69-	=69-	=69-	=69-	=69-
2BB-/	.	.	.	.	.	2d\	-p(ro)p-
*	*	*custos:G	*	*	*	*	*
.	.	4G/	ho-	.	.	.	.
!	!	!LO:LB:g=original	!	!	!	!	!
2C/	.	1G/	.	4E/	-mi-	1c\	-ter
.	.	.	.	4D/	.	.	.
1AA/	-mi-	.	.	1C/	-nes;	.	.
.	.	2F/	-mi-	.	.	2c/	nos
=70-	=70-	=70-	=70-	=70-	=70-	=70-	=70-
1GG/	-(n)es,	2G/	-nes,	2r	.	1B-/	ho-
.	.	2B-/	.	2G/	et	.	.
1r	.	2A/	et	2F/	prop-	0c\	-(m)i-
.	.	2G/	prop-	2E/	-ter	.	.
=71-	=71-	=71-	=71-	=71-	=71-	=71-	=71-
*	*	*	*	*custos:C	*	*	*
0r	.	2A/	.	2F/	no-	.	.
!	!	!	!	!LO:PB:g=original	!	!	!
.	.	1G/	-ter	4C/	-ſtram	.	.
.	.	.	.	4D/	.	.	.
.	.	.	.	4E/	.	1G/	-(n)es;
.	.	.	.	4F/	.	.	.
.	.	1B-\	n(ost)-	2.G/	ſa-	.	.
=72-	=72-	=72-	=72-	=72-	=72-	=72-	=72-
2r	.	.	.	.	.	1d\	et
.	.	.	.	4F/	.	.	.
2D/	et	2A/	-ram	2F/	.	.	.
*custos:B-	*	*	*	*	*	*	*
2C/	pro-	2c\	ſa-	2G/	.	2e\	p(ro)p-
!LO:LB:g=original	!	!	!	!	!	!	!
2BB-/	-pter	2.d\	.	2B-/	.	2d\	-ter
=73-	=73-	=73-	=73-	=73-	=73-	=73-	=73-
1C/	n(os-	.	.	2A/	.	1e\	no-
.	.	4c\	-lu-	.	.	.	.
.	.	2c\	-te(m),	2.G/	-lu-	.	.
2GG/	-t)ram	1B-\	.	.	.	1.d\	-ſtram
.	.	.	.	4F/	.	.	.
1G\	ſa-	.	.	4G/	.	.	.
.	.	.	.	4A/	.	.	.
=74-	=74-	=74-	=74-	=74-	=74-	=74-	=74-
.	.	1r	.	2B-\	.	.	.
*	*	*	*	*	*	*custos:f	*
4F\	.	.	.	2c\	.	2e\	.
4E\	-lu-	.	.	.	.	.	.
!	!	!	!	!	!	!LO:LB:g=original	!
1D\	-te(m)	1B-\	de-	1F/	.	1f\	.
=75-	=75-	=75-	=75-	=75-	=75-	=75-	=75-
1C/	.	1.c\	-ſcen-	0G/	-tem,	2e\	ſa-
.	.	.	.	.	.	2g\	-lu-
1E\	de-	.	.	.	.	2g\	-te(m)
*	*	*custos:A	*	*	*	*	*
.	.	2B-\	-dit	.	.	2g\	de-
!	!	!LO:PB:g=original	!	!	!	!	!
=76-	=76-	=76-	=76-	=76-	=76-	=76-	=76-
*	*	*lig	*	*	*	*	*
1F\	-ſce(n)-	1A\	de	2r	.	1f\	-ſce(n)-
.	.	.	.	2c\	de-	.	.
*	*	*	*	*custos:c	*	*	*
1C/	-dit	1G/	.	2c\	-ſce(n)-	1e\	-dit
!	!	!	!	!LO:LB:g=original	!	!	!
.	.	.	.	2c\	-dit	.	.
*	*	*Xlig	*	*	*	*	*
=77-	=77-	=77-	=77-	=77-	=77-	=77-	=77-
0D\	.	1F/	c(ae)-	2B-/	.	0.d\	.
.	.	.	.	2.A/	de	.	.
.	.	1A\	.	.	.	.	.
.	.	.	.	4G/	c(ae)-	.	.
.	.	.	.	4F/	.	.	.
.	.	.	.	4E/	.	.	.
=78-	=78-	=78-	=78-	=78-	=78-	=78-	=78-
2.BB-/	de	1B-\	.	2F/	.	.	.
.	.	.	.	1G/	.	.	.
4C/	c(ae)-	.	.	.	.	.	.
1D\	.	1A\	.	.	.	2r	.
*	*	*	*	*	*	*	*ij
.	.	.	.	2F/	.	2d/	de-
=79-	=79-	=79-	=79-	=79-	=79-	=79-	=79-
*lig	*	*	*	*	*	*	*
1BB-/	.	00G/	-lis	2G/	.	2d/	-ſce(n)-
.	.	.	.	2D/	.	2d/	-dit
*	*	*	*	*	*	*	*Xij
1C/	.	.	.	1E/	.	1.c\	de
*Xlig	*	*	*	*	*	*	*
=80-	=80-	=80-	=80-	=80-	=80-	=80-	=80-
*custos:GG	*	*	*	*	*	*	*
0GGl/;	-lis,	.	.	0Dl/	-lis,	.	.
.	.	.	.	.	.	4B-/	c(ae)-
.	.	.	.	.	.	4A/	.
.	.	.	.	.	.	1B-l/	-lis;
!LO:LB:g=original	!	!	!	!	!	!	!
=81-	=81-	=81-	=81-	=81-	=81-	=81-	=81-
0GG/	Et	0B-\	Et	0G/	Et	0d\	Et
=82-	=82-	=82-	=82-	=82-	=82-	=82-	=82-
*	*	*	*	*	*	*custos:d	*
1D\	in-	1F/	in-	1.A\	in-	1d\	in-
!	!	!	!	!	!	!LO:LB:g=original	!
1D\	-car-	1F/	-car-	.	.	1d\	-car-
.	.	.	.	2B-\	-car-	.	.
=83-	=83-	=83-	=83-	=83-	=83-	=83-	=83-
0C/	-na-	0G/	-na-	1c\	-na-	2.e\	-na-
.	.	.	.	.	.	4d\	.
*	*	*	*	*custos:A	*	*	*
.	.	.	.	1c\	-tus	4e\	.
.	.	.	.	.	.	4f\	.
.	.	.	.	.	.	1g\	.
!	!	!	!	!LO:LB:g=original	!	!	!
=84-	=84-	=84-	=84-	=84-	=84-	=84-	=84-
0D\	-t(us)	0d\	-tus	0A\	eſt	.	.
.	.	.	.	.	.	4f\	.
.	.	.	.	.	.	4e\	-tus
.	.	.	.	.	.	1f\	eſt
=85-	=85-	=85-	=85-	=85-	=85-	=85-	=85-
0G\	eſt	00e\	.	0B-\	de	1g\	.
.	.	.	.	.	.	0G/	de
=86-	=86-	=86-	=86-	=86-	=86-	=86-	=86-
0C/	de	.	.	2.c\	ſpi-	.	.
.	.	.	.	4B-\	-ri-	.	.
.	.	.	.	2A/	-tu	1c\	ſpi-
.	.	.	.	1G/	.	.	.
=87-	=87-	=87-	=87-	=87-	=87-	=87-	=87-
1D\	ſp(i-	0d\	eſt;	.	.	1B-/	-ri-
.	.	.	.	4F/	.	.	.
.	.	.	.	4E/	.	.	.
1D\	-ri-	.	.	1F/	.	1A/	-tu
=88-	=88-	=88-	=88-	=88-	=88-	=88-	=88-
1GG/	-t)u	00r	.	1G/	.	2.B-/	ſan-
.	.	.	.	.	.	4c/	.
1.BB-/	ſan-	.	.	1F/	.	4d/	.
*	*	*	*	*	*	*custos:f	*
.	.	.	.	.	.	4e\	.
!	!	!	!	!	!	!LO:PB:g=original	!
.	.	.	.	.	.	1f\	.
=89-	=89-	=89-	=89-	=89-	=89-	=89-	=89-
.	.	.	.	1.G/	ſan-	.	.
1C/	.	.	.	.	.	4e\	.
.	.	.	.	.	.	4d\	.
.	.	.	.	.	.	2e\	.
2.D/	.	.	.	4F/	.	2A/	.
.	.	.	.	4E/	-cto;	.	.
=90-	=90-	=90-	=90-	=90-	=90-	=90-	=90-
.	.	0d\	de	1F/	.	2B-/	.
4C/	.	.	.	.	.	.	.
4BB-/	.	.	.	.	.	1A/	.
4AA/	.	.	.	.	.	.	.
1BB-/	.	.	.	1D/	.	.	.
.	.	.	.	.	.	2G/	.
=91-	=91-	=91-	=91-	=91-	=91-	=91-	=91-
*	*	*custos:c	*	*	*	*	*
*	*	*	*	*lig	*	*	*
0AA/	-cto,	1c\	ſpi-	1E/	.	0A/	-cto
!	!	!LO:LB:g=original	!	!	!	!	!
.	.	1c\	-ri-	1F/	.	.	.
*	*	*	*	*Xlig	*	*	*
=92-	=92-	=92-	=92-	=92-	=92-	=92-	=92-
*custos:AA	*	*	*	*	*	*	*
*	*	*	*	*	*ij	*	*
1GG/	.	2.B-\	-tu	1.G/	ſan-	2.d\	ex
.	.	4A\	.	.	.	4c/	.
0r	.	4B-\	.	.	.	2B-/	Ma-
.	.	4c\	.	.	.	.	.
*	*	*	*	*custos:E	*	*	*
.	.	1d\	ſan-	2F/	.	2A/	-ri-
=93-	=93-	=93-	=93-	=93-	=93-	=93-	=93-
.	.	.	.	0E/	-cto	1G/	-a
*	*	*	*	*	*Xij	*	*
.	.	4c\	.	.	.	.	.
.	.	4B-\	.	.	.	.	.
!LO:PB:g=original	!	!	!	!	!	!	!
1AA/	ex	1c\	-cto,	.	.	0A/	uir-
=94-	=94-	=94-	=94-	=94-	=94-	=94-	=94-
1D\	Ma-	0d\	.	2r	.	.	.
.	.	.	.	1F/	ex	.	.
1BB-/	-ri-	.	.	.	.	1B-/	-gi-
.	.	.	.	1G/	Ma-	.	.
=95-	=95-	=95-	=95-	=95-	=95-	=95-	=95-
1C/	-a	00r	.	.	.	1G/	-ne
.	.	.	.	2E/	-ri-	.	.
*	*	*	*	*	*	*	*ij
2D/	uir-	.	.	2F/	-a	0B-/	uir-
1E\	.	.	.	2.G/	uir-	.	.
=96-	=96-	=96-	=96-	=96-	=96-	=96-	=96-
.	.	.	.	4F/	.	.	.
2D/	-gi-	.	.	1F/	-gi-	.	.
1C/	-ne	.	.	.	.	1A/	-gi-
.	.	.	.	2E/	-ne;	.	.
=97-	=97-	=97-	=97-	=97-	=97-	=97-	=97-
*	*	*	*	*	*	*custos:f	*
0BB-/	.	0d\	Et	1F/	.	1B-/	-ne
*	*	*	*	*	*	*	*Xij
.	.	.	.	1B-\	Et	2r	.
!	!	!	!	!	!	!LO:LB:g=original	!
.	.	.	.	.	.	1f\	Et
=98-	=98-	=98-	=98-	=98-	=98-	=98-	=98-
1r	.	1c\	ho-	1A\	ho-	.	.
.	.	.	.	.	.	1e\	ho-
1G\	Et	1B-\	-mo	2G/	-mo	.	.
.	.	.	.	1B-\	fa-	2d\	-mo
=99-	=99-	=99-	=99-	=99-	=99-	=99-	=99-
1F\	ho-	0c\	fac-	.	.	1f\	fac-
.	.	.	.	2A/	.	.	.
1E\	-mo	.	.	1G/	.	1g\	-tus
=100-	=100-	=100-	=100-	=100-	=100-	=100-	=100-
*	*	*	*	*custos:G	*	*	*
1F\	.	0c\	-tus	1A\	.	2f\	e(st)
*	*	*	*	*	*	*	*ij
.	.	.	.	.	.	2c/	Et
!	!	!	!	!LO:PB:g=original	!	!	!
1.C/	fac-	.	.	2.G/	-ctus	1.e\	ho-
.	.	.	.	4F/	.	.	.
=101-	=101-	=101-	=101-	=101-	=101-	=101-	=101-
.	.	00G/	e(st),	4G/	.	.	.
.	.	.	.	4A/	.	.	.
2BB-/	-tus	.	.	2B-\	.	2d\	-mo-
1C/	.	.	.	2G/	.	2e\	-fac-
.	.	.	.	1c\	.	2e\	-tus
=102-	=102-	=102-	=102-	=102-	=102-	=102-	=102-
0GG/	eſt;	.	.	.	.	1d\	e(st)
*	*	*	*	*	*	*	*Xij
.	.	.	.	4B-\	.	.	.
.	.	.	.	4A/	.	.	.
.	.	.	.	1B-\	eſt;	2r	.
.	.	.	.	.	.	2.d\	Cru-
=103-	=103-	=103-	=103-	=103-	=103-	=103-	=103-
1G\	Cru-	00r	.	2r	.	.	.
.	.	.	.	.	.	4c/	.
.	.	.	.	1d\	Cru-	2B-/	-ci-
*custos:E	*	*	*	*	*	*	*
2F\	-ci-	.	.	.	.	2A/	-fi-
!LO:LB:g=original	!	!	!	!	!	!	!
2E\	-fi-	.	.	2c\	-ci-	2G/	-xus
=104-	=104-	=104-	=104-	=104-	=104-	=104-	=104-
1D\	-xus	.	.	2B-\	-fi-	1d\	e-
.	.	.	.	1A\	-xus	.	.
2F\	e-	.	.	.	.	2c/	-ti-
*	*	*	*	*	*	*custos:A	*
2G\	-ti-	.	.	1d\	e-	2B-/	-am
!	!	!	!	!	!	!LO:LB:g=original	!
=105-	=105-	=105-	=105-	=105-	=105-	=105-	=105-
2D/	-a(m)	00r	.	.	.	1A/	p(ro)-
2F\	pro	.	.	2c\	-ti-	.	.
4BB-/	no-	.	.	2B-\	-am	1d\	-no-
4C/	.	.	.	.	.	.	.
4D/	.	.	.	1A\	.	.	.
4E/	.	.	.	.	.	.	.
=106-	=106-	=106-	=106-	=106-	=106-	=106-	=106-
2F\	.	.	.	.	.	2c/	-bis
1G\	.	.	.	2G/	pro	2B-/	ſub
*	*	*	*	*custos:B-	*	*	*
.	.	.	.	1c\	no-	1A/	.
2F\	.	.	.	.	.	.	.
!	!	!	!	!LO:LB:g=original	!	!	!
=107-	=107-	=107-	=107-	=107-	=107-	=107-	=107-
2.G\	-bis	00r	.	1B-\	-bis;	2G/	Pon-
.	.	.	.	.	.	2d\	-ti-
4F\	.	.	.	.	.	.	.
2D/	ſub-	.	.	2r	.	2d\	-o-
1F\	-pon-	.	.	2A/	ſub	2c\	.
=108-	=108-	=108-	=108-	=108-	=108-	=108-	=108-
.	.	.	.	2A/	Pon-	2d\	.
2E\	-ci-	.	.	2G/	-ti-	2e\	.
1D\	-o	.	.	2A/	-o	1.f\	.
.	.	.	.	2B-\	Pi-	.	.
=109-	=109-	=109-	=109-	=109-	=109-	=109-	=109-
1C/	Pi-	1c\	sub	2A/	-la-	.	.
.	.	.	.	4G/	.	4e\	-Pi-
.	.	.	.	4F/	.	4d\	.
*custos:F	*	*custos:c	*	*	*	*	*
1C/	-la-	1c\	Po(n)-	2G/	-to	1e\	-la-
.	.	.	.	1A\	.	.	.
!LO:LB:g=original	!	!LO:LB:g=original	!	!	!	!	!
=110-	=110-	=110-	=110-	=110-	=110-	=110-	=110-
1F\	-to	1c\	-ci-	.	.	0.f\	-to;
.	.	.	.	1F/	.	.	.
2.BB-/	Pi-	1.d\	-o	.	.	.	.
*	*	*	*	*	*ij	*	*
.	.	.	.	2B-\	Pi-	.	.
4C/	.	.	.	.	.	.	.
=111-	=111-	=111-	=111-	=111-	=111-	=111-	=111-
2D/	.	.	.	2A/	.	.	.
2BB-/	.	2d\	Pi-	1B-\	-la-	.	.
1F\	-la-	1c\	-la-	.	.	2r	.
.	.	.	.	2A\	.	1f\	paſ-
=112-	=112-	=112-	=112-	=112-	=112-	=112-	=112-
0BB-/	-to,	0B-\	-to,	1B-\	-to	.	.
*	*	*	*	*	*Xij	*	*
!	!	!	!	!	!	!LO:TX:t=P:problem=poprawka wysokości	!
.	.	.	.	.	.	2g\	-sus
*	*	*	*	*	*	*custos:d	*
.	.	.	.	2r	.	2f\	et
!	!	!	!	!	!	!LO:LB:g=original	!
.	.	.	.	1B-\	paſ-	2d\	ſe-
=113-	=113-	=113-	=113-	=113-	=113-	=113-	=113-
0r	.	1r	.	.	.	2f\	-pul-
.	.	.	.	2c\	-sus	2e\	.
*	*	*	*	*custos:G	*	*	*
.	.	2r	.	2B-\	et	4d\	.
.	.	.	.	.	.	4c/	.
!	!	!	!	!LO:LB:g=original	!	!	!
.	.	1B-\	Paſ-	1G/	ſe-	4B-/	.
.	.	.	.	.	.	4A/	.
=114-	=114-	=114-	=114-	=114-	=114-	=114-	=114-
1r	.	.	.	.	.	1G/	-tus
.	.	2B-/	-sus	1B-\	-pul-	.	.
2r	.	1.c\	.	.	.	1F/	eſt;
1F\	paſ-	.	.	4A/	-tus	.	.
.	.	.	.	4G/	.	.	.
=115-	=115-	=115-	=115-	=115-	=115-	=115-	=115-
.	.	.	.	2A/	.	0r	.
2G\	.	2B-\	et	2B-\	.	.	.
2F\	-sus	1.A\	ſe-	2c\	.	.	.
2D/	.	.	.	1d\	.	.	.
=116-	=116-	=116-	=116-	=116-	=116-	=116-	=116-
2F\	et	.	.	.	.	1r	.
2E\	ſe-	2G/	-pul-	2c\	.	.	.
2D/	-pul-	1F/	.	2B-\	eſt	2r	.
*	*	*	*	*	*	*	*ij
1F\	.	.	.	1A\	.	1c\	paſ-
=117-	=117-	=117-	=117-	=117-	=117-	=117-	=117-
.	.	2A/	-tus	.	.	.	.
*	*	*	*	*	*ij	*	*
2BB-/	-tus	2B-\	.	1G/	paſ-	2d\	-sus
2C/	.	1A\	eſt;	.	.	2c/	et
2D/	.	.	.	2F/	-sus	2A/	ſe-
=118-	=118-	=118-	=118-	=118-	=118-	=118-	=118-
*custos:C	*	*custos:B-	*	*	*	*	*
1GG/	.	00G\;	.	2G/	et	1B-/	-pul-
.	.	.	.	2D/	ſe-	.	.
!LO:LB:g=original	!	!	!	!	!	!	!
2.C/	.	.	.	1.E/	-pul-	1c\	-tus
4BB-/	.	.	.	.	.	.	.
=119-	=119-	=119-	=119-	=119-	=119-	=119-	=119-
0GGl/;	eſt,	.	.	.	.	0B-/	eſt
*	*	*	*	*	*	*	*Xij
.	.	.	.	2D/	-tus	.	.
!	!	!	!	!LO:TX:b:t=Et reſurre&colon;\nxit	!	!	!
.	.	.	.	1Dl/	eſt.	.	.
*	*	*	*	*	*Xij	*	*
!	!	!LO:LB:g=original	!	!	!	!	!
=120-	=120-	=120-	=120-	=120-	=120-	=120-	=120-
00r	.	0r	.	0ryy	.	1d\	Et
.	.	.	.	.	.	2d\	re-
*	*	*	*	*	*	*custos:d	*
.	.	.	.	.	.	2G/	-ſur-
!	!	!	!	!	!	!LO:PB:g=original	!
=121-	=121-	=121-	=121-	=121-	=121-	=121-	=121-
.	.	1B-\	Et	0ryy	.	2.d/	-re-
.	.	.	.	.	.	4d/	-xit
.	.	2F/	re-	.	.	2d/	ter-
.	.	2F/	-ſur-	.	.	2c/	-ti-
=122-	=122-	=122-	=122-	=122-	=122-	=122-	=122-
1r	.	2G/	-re-	0ryy	.	2B-/	-a
.	.	2G/	-xit	.	.	2.d/	di-
1G\	Et	1.d\	ter-	.	.	.	.
.	.	.	.	.	.	4c/	.
.	.	.	.	.	.	4B-/	.
.	.	.	.	.	.	4A/	.
=123-	=123-	=123-	=123-	=123-	=123-	=123-	=123-
2G\	re-	.	.	0ryy	.	2B-/	.
2C/	-ſur-	2e\	-ci-	.	.	1c\	.
2.G\	-re-	2d\	-a	.	.	.	.
.	.	2.e\	.	.	.	4B-/	.
4G\	-xit	.	.	.	.	4A/	.
=124-	=124-	=124-	=124-	=124-	=124-	=124-	=124-
2G\	ter-	.	.	0ryy	.	2B-/	.
.	.	4d\	di-	.	.	.	.
2F\	-ti-	1d\	.	.	.	2A/	-e
2E-X\	-a	.	.	.	.	1G/	.
2E-\	di-	2c\	.	.	.	.	.
=125-	=125-	=125-	=125-	=125-	=125-	=125-	=125-
0D\	-e,	00d\	-e;	0ryy	.	2r	.
.	.	.	.	.	.	1A/	ſe-
.	.	.	.	.	.	2F/	-cun-
=126-	=126-	=126-	=126-	=126-	=126-	=126-	=126-
2r	.	.	.	0ryy	.	2G/	-du(m)
*	*	*	*	*	*	*custos:B-	*
1D\	ſe-	.	.	.	.	2A/	ſcri-
!	!	!	!	!	!	!LO:LB:g=original	!
.	.	.	.	.	.	1B-/	-ptu-
2BB-/	-cun-	.	.	.	.	.	.
=127-	=127-	=127-	=127-	=127-	=127-	=127-	=127-
*custos:D	*	*	*	*	*	*	*
2C/	-du(m)	2r	.	0ryy	.	1A/	-ras;
!LO:PB:g=original	!	!	!	!	!	!	!
2D/	ſcrip-	2d\	ſe-	.	.	.	.
1Eny\	-tu-	2B-/	-cun-	.	.	2r	.
*	*	*	*	*	*	*	*ij
.	.	2c\	-du(m)	.	.	2G/	ſe-
=128-	=128-	=128-	=128-	=128-	=128-	=128-	=128-
*	*	*custos:f	*	*	*	*	*
0D\	-ras,	2d\	ſcri-	0ryy	.	2B-/	-cun-
!	!	!LO:PB:g=original	!	!	!	!	!
.	.	2.f\	-ptu-	.	.	2A/	-du(m)
.	.	.	.	.	.	2F/	ſcri-
.	.	4e\	.	.	.	.	.
.	.	4d\	.	.	.	2.f\	-ptu-
.	.	4c\	.	.	.	.	.
=129-	=129-	=129-	=129-	=129-	=129-	=129-	=129-
2r	.	2d\	.	0ryy	.	.	.
.	.	.	.	.	.	4e\	.
2GG/	et	1B-\	.	.	.	4d\	.
.	.	.	.	.	.	4c/	.
2BB-/	a-	.	.	.	.	2d\	.
2C/	-ſcen-	1A\	.	.	.	2c/	.
=130-	=130-	=130-	=130-	=130-	=130-	=130-	=130-
2D/	.	.	.	0ryy	.	1B-/	-ras
2E/	-dit	2G/	.	.	.	.	.
2.F\	in	2A/	-ras,	.	.	1A/	ſe-
.	.	2D/	et	.	.	.	.
4E\	.	.	.	.	.	.	.
=131-	=131-	=131-	=131-	=131-	=131-	=131-	=131-
2D/	.	2F/	a-	0ryy	.	2B-/	-cun-
1C/	.	2G/	-ſcen-	.	.	4c/	.
.	.	.	.	.	.	4B-/	.
.	.	2A/	.	.	.	4A/	-du(m)
.	.	.	.	.	.	4G/	.
2BB-/	.	2B-/	-dit	.	.	1G/	ſcri-
=132-	=132-	=132-	=132-	=132-	=132-	=132-	=132-
1AA/	c(ae)-	1c\	in	0ryy	.	.	.
*	*	*	*	*	*	*custos:G	*
.	.	.	.	.	.	2F/	-ptu-
!	!	!	!	!	!	!LO:LB:g=original	!
0GG/	-lu(m),	2B-\	.	.	.	1G/	-ras
*	*	*	*	*	*	*	*Xij
.	.	2G/	c(ae)-	.	.	.	.
=133-	=133-	=133-	=133-	=133-	=133-	=133-	=133-
.	.	2.B-\	-lum:	0ryy	.	2r	.
.	.	.	.	.	.	2G/	et
.	.	4c\	.	.	.	.	.
2r	.	4d\	.	.	.	2.B-/	a-
*	*	*custos:d	*	*	*	*	*
.	.	4e\	.	.	.	.	.
!	!	!LO:LB:g=original	!	!	!	!	!
*	*ij	*	*ij	*	*	*	*
2GG/	a-	1d\	in	.	.	.	.
.	.	.	.	.	.	4c/	.
=134-	=134-	=134-	=134-	=134-	=134-	=134-	=134-
2BB-/	-ſcen-	.	.	0ryy	.	2d\	-ſcen-
2C/	.	4c\	.	.	.	2e\	-dit
.	.	4B-\	.	.	.	.	.
*custos:E	*	*	*	*	*	*	*
2D/	-dit	2A/	c(ae)-	.	.	2f\	.
!LO:LB:g=original	!	!	!	!	!	!	!
2E\	in	2G/	.	.	.	2g\	in
=135-	=135-	=135-	=135-	=135-	=135-	=135-	=135-
2F\	c(ae)-	2A/	-lum	0ryy	.	4f\	c(ae)-
.	.	.	.	.	.	4e\	.
2.G\	.	2.B-\	in	.	.	4d/	.
.	.	.	.	.	.	4c/	.
.	.	.	.	.	.	1d\	.
4A\	.	4c\	.	.	.	.	.
2B-\	.	1d\	c(ae)-	.	.	.	.
=136-	=136-	=136-	=136-	=136-	=136-	=136-	=136-
1A\	-lu(m),	.	.	0ryy	.	1e\	.
.	.	2c\	.	.	.	.	.
2r	.	1d\	-lum	.	.	2d\	-lu(m);
*	*Xij	*	*Xij	*	*	*	*
2D/	ſe-	.	.	.	.	2f\	ſe-
=137-	=137-	=137-	=137-	=137-	=137-	=137-	=137-
2D/	-det	2r	.	0ryy	.	2f\	-det
2D/	ad	2B-\	ſe-	.	.	2f\	ad
1.E-X\	dex-	2B-\	-det	.	.	1.g\	dex-
.	.	2B-\	ad	.	.	.	.
=138-	=138-	=138-	=138-	=138-	=138-	=138-	=138-
.	.	1.c\	.	0ryy	.	.	.
*	*	*	*	*	*	*custos:e	*
2D/	-te-	.	.	.	.	2f\	-te-
!	!	!	!	!	!	!LO:LB:g=original	!
2C/	-ra(m)	.	.	.	.	2e\	-ram-
2.D/	pa-	2B-\	dex-	.	.	2.f\	.
=139-	=139-	=139-	=139-	=139-	=139-	=139-	=139-
.	.	2A/	-te-	0ryy	.	.	.
4C/	.	.	.	.	.	4e\	-pa-
4BB-/	.	1B-\	-ra(m)	.	.	4d\	.
4AA/	.	.	.	.	.	4c/	.
2BB-/	.	.	.	.	.	2d\	.
2C/	-tris,	4A/	p(at)-	.	.	4c/	.
.	.	4G/	.	.	.	4B-/	.
=140-	=140-	=140-	=140-	=140-	=140-	=140-	=140-
*	*	*custos:f	*	*	*	*	*
0D\	.	2F/	-ris,	0ryy	.	2.A/	.
!	!	!LO:LB:g=original	!	!	!	!	!
.	.	2.f\	pa-	.	.	.	.
.	.	.	.	.	.	4G/	.
.	.	.	.	.	.	2A/	.
.	.	4e\	.	.	.	.	.
.	.	4d\	.	.	.	2.B-/	.
.	.	4c\	.	.	.	.	.
=141-	=141-	=141-	=141-	=141-	=141-	=141-	=141-
2r	.	2.d\	.	0ryy	.	.	.
.	.	.	.	.	.	4A/	-tris,
*custos:C	*	*	*	*	*	*	*
2BB-/	Et	.	.	.	.	1G/	.
.	.	8c\L	.	.	.	.	.
.	.	8B-\J	.	.	.	.	.
!LO:LB:g=original	!	!	!	!	!	!	!
2C/	i-	1A\	.	.	.	.	.
2D/	-te-	.	.	.	.	2F/	.
=142-	=142-	=142-	=142-	=142-	=142-	=142-	=142-
2GG/	-rum	1G/	-tris;	0ryy	.	2G/	Et
2G\	uen-	.	.	.	.	2B-/	i-
2F\	.	1r	.	.	.	2c/	-te-
2D/	-tu-	.	.	.	.	2d/	-ru(m)
=143-	=143-	=143-	=143-	=143-	=143-	=143-	=143-
*	*	*	*	*	*	*custos:g	*
1.Eny\	-rus	2r	.	0ryy	.	2G/	uen-
!	!	!	!	!	!	!LO:PB:g=original	!
.	.	2B-\	Et	.	.	1g\	-tu-
.	.	2c\	i-	.	.	.	.
2D/	eſt	2d\	-te-	.	.	1f\	-rus
=144-	=144-	=144-	=144-	=144-	=144-	=144-	=144-
1C/	cu(m)	2G/	-rum	0ryy	.	.	.
.	.	1c\	ue(n)-	.	.	2e\	.
1G\	glo-	.	.	.	.	1d\	eſt;
.	.	1B-\	.	.	.	.	.
=145-	=145-	=145-	=145-	=145-	=145-	=145-	=145-
1F\	-ri-	.	.	0ryy	.	2r	.
.	.	2A/	-tu-	.	.	2c/	cum
1BB-/	-a	2.B-\	-rus	.	.	2d\	.
.	.	.	.	.	.	2f\	glo-
.	.	4A/	.	.	.	.	.
=146-	=146-	=146-	=146-	=146-	=146-	=146-	=146-
2.C/	iu-	2G/	eſt	0ryy	.	2.e\	-ri-
.	.	2.A/	cu(m)	.	.	.	.
4BB-/	.	.	.	.	.	4d\	-a
2AA/	.	.	.	.	.	2c/	.
*	*	*custos:F	*	*	*	*	*
.	.	4G/	glo-	.	.	.	.
!	!	!LO:LB:g=original	!	!	!	!	!
2.BB-/	.	2F/	-ri-	.	.	2.d/	iu-
=147-	=147-	=147-	=147-	=147-	=147-	=147-	=147-
.	.	2.G/	-a	0ryy	.	.	.
4GG/	.	.	.	.	.	4B-/	-di-
1C/	.	.	.	.	.	2.e\	.
.	.	4F/	.	.	.	.	.
.	.	4G/	.	.	.	.	.
.	.	4A/	.	.	.	4d\	.
*custos:E	*	*	*	*	*	*	*
2BB-/	-di-	2.B-\	.	.	.	1d\	-ca-
!LO:LB:g=original	!	!	!	!	!	!	!
=148-	=148-	=148-	=148-	=148-	=148-	=148-	=148-
0E\	-ca-	.	.	0ryy	.	.	.
.	.	4A/	.	.	.	.	.
.	.	4G/	.	.	.	4c/	.
.	.	4F/	.	.	.	4B-/	.
.	.	1G/	.	.	.	1c\	.
=149-	=149-	=149-	=149-	=149-	=149-	=149-	=149-
*	*	*	*	*	*	*custos:d	*
0D\	-re	2r	.	0ryy	.	00d\	-re
.	.	2A/	iu-	.	.	.	.
.	.	2A/	-di-	.	.	.	.
.	.	2F/	-ca-	.	.	.	.
=150-	=150-	=150-	=150-	=150-	=150-	=150-	=150-
2r	.	2G/	-re	0ryy	.	.	.
2D/	ui-	2A/	ui-	.	.	.	.
2D/	-uos	2D/	-uos	.	.	.	.
2BB-/	.	1G/	.	.	.	.	.
=151-	=151-	=151-	=151-	=151-	=151-	=151-	=151-
2C/	et	.	.	0ryy	.	2r	.
!	!	!	!	!	!	!LO:LB:g=original	!
2D/	mor-	2F/	et	.	.	2d\	ui-
2GG/	-tu-	1B-\	mor-	.	.	2d\	-uos
2G\	-os	.	.	.	.	2B-/	.
=152-	=152-	=152-	=152-	=152-	=152-	=152-	=152-
*	*	*custos:B-	*	*	*	*	*
*	*ij	*	*	*	*	*	*
2F\	ui-	2A/	-tu-	0ryy	.	2c/	et
!	!	!LO:PB:g=original	!	!	!	!	!
2BB-/	-uos	2.B-/	-tu-	.	.	2d\	mor-
1.E\	ui-	.	.	.	.	2.G/	-tu-
.	.	4A/	.	.	.	.	.
.	.	4G/	.	.	.	.	.
.	.	4F/	.	.	.	4A/	-os
=153-	=153-	=153-	=153-	=153-	=153-	=153-	=153-
*	*	*	*	*	*	*	*ij
.	.	1G/	.	0ryy	.	2B-/	ui-
2C/	-uos	.	.	.	.	2.c/	-uos
2D/	et	2F/	.	.	.	.	.
.	.	.	.	.	.	4B-/	.
1E\	mo-	2.G/	.	.	.	2B-/	et
=154-	=154-	=154-	=154-	=154-	=154-	=154-	=154-
.	.	.	.	0ryy	.	2c/	mor-
.	.	4A/	.	.	.	.	.
2D/	.	1B-\	.	.	.	2d\	.
1C/	-tu-	.	.	.	.	1e\	-tu-
.	.	2A/	-os;	.	.	.	.
=155-	=155-	=155-	=155-	=155-	=155-	=155-	=155-
*custos:E	*	*	*	*	*	*	*
0BB-/	-os	1B-\	.	0ryy	.	1d\	-os
*	*Xij	*	*	*	*	*	*Xij
.	.	1r	.	.	.	1.f\	cu-
!LO:PB:g=original	!	!	!	!	!	!	!
=156-	=156-	=156-	=156-	=156-	=156-	=156-	=156-
1r	.	1.B-\	cu-	0ryy	.	.	.
.	.	.	.	.	.	2f\	-ius
1.E\	Cu-	.	.	.	.	0g\	re-
.	.	2B-/	-ius	.	.	.	.
=157-	=157-	=157-	=157-	=157-	=157-	=157-	=157-
.	.	1.c\	re-	0ryy	.	.	.
2E\	-ius	.	.	.	.	.	.
*	*	*	*	*	*	*custos:f	*
0F\	re-	.	.	.	.	1c\	-gni
.	.	2A/	.	.	.	.	.
=158-	=158-	=158-	=158-	=158-	=158-	=158-	=158-
.	.	1A\	-gni	0ryy	.	2r	.
!	!	!	!	!	!	!LO:LB:g=original	!
.	.	.	.	.	.	2.f\	non
1BB-/	-gni	1B-\	no(n)	.	.	.	.
.	.	.	.	.	.	4e\	.
.	.	.	.	.	.	1d\	.
=159-	=159-	=159-	=159-	=159-	=159-	=159-	=159-
1E\	no(n)	2.G/	e-	0ryy	.	.	.
.	.	.	.	.	.	4c/	e-
.	.	4F/	-rit	.	.	4B-/	.
2.E/	e-	4G/	.	.	.	2c/	.
*	*	*custos:B-	*	*	*	*	*
.	.	4A/	fi-	.	.	.	.
!	!	!LO:LB:g=original	!	!	!	!	!
.	.	2B-\	.	.	.	2G/	-rit
4D/	-rit	.	.	.	.	.	.
=160-	=160-	=160-	=160-	=160-	=160-	=160-	=160-
2C/	.	2A/	.	0ryy	.	2A/	.
2BB-/	.	2.G/	.	.	.	2B-/	.
1AA/	fi-	.	.	.	.	1c\	fi-
.	.	4F/	.	.	.	.	.
.	.	2F/	-nis;	.	.	.	.
=161-	=161-	=161-	=161-	=161-	=161-	=161-	=161-
0GGl/	-nis	0Gl/	.	0ryy	.	0B-l/	-nis;
=162-	=162-	=162-	=162-	=162-	=162-	=162-	=162-
1B-\	Et	0r	.	0ryy	.	1.d\	Et
1F\	in	.	.	.	.	.	.
.	.	.	.	.	.	2c/	in
!	!	!	!	!LO:LB:g=original	!	!	!
=163-	=163-	=163-	=163-	=163-	=163-	=163-	=163-
2G\	ſpi-	1B-\	Et	1r	.	2B-/	ſpi-
2G\	-ri-	.	.	.	.	2G/	-ri-
1D\	-tu(m)	1F/	in	2.d\	Et	1A/	-tu(m)
.	.	.	.	4c\	.	.	.
=164-	=164-	=164-	=164-	=164-	=164-	=164-	=164-
1r	.	2G/	ſpi-	2B-\	in	2.d\	ſan-
.	.	2G/	-ri-	2G/	ſpi-	.	.
.	.	.	.	.	.	4e\	.
*	*	*	*	*	*	*custos:F	*
1.D\	ſ(an)-	2.d\	-tu(m)	1A\	-ri-	2f\	-ctu(m)
!	!	!	!	!	!	!LO:LB:g=original	!
.	.	.	.	.	.	1F/	do-
.	.	4e\	ſan-	.	.	.	.
=165-	=165-	=165-	=165-	=165-	=165-	=165-	=165-
.	.	2f\	.	2D/	-tum	.	.
*custos:B-	*	*	*	*	*	*	*
2C/	-ctum	2.e\	-tu(m)	2E/	.	2G/	.
!LO:LB:g=original	!	!	!	!	!	!	!
2BB-/	do-	.	.	2F/	ſan-	1B-/	-mi-
.	.	4d\	.	.	.	.	.
2GG/	-mi-	1d\	do-	2G/	-ctu(m)	.	.
=166-	=166-	=166-	=166-	=166-	=166-	=166-	=166-
1AA/	-nu(m);	.	.	1E/	do-	1A/	-nu(m)
.	.	2c\	-mi-	.	.	.	.
*	*	*custos:d	*	*	*	*	*
2r	.	1d\	-nu(m),	2.D/	-mi-	2.F/	et
1A\	et	.	.	.	.	.	.
.	.	.	.	4E/	.	4G/	ui-
=167-	=167-	=167-	=167-	=167-	=167-	=167-	=167-
.	.	2r	.	2F/	-num	2A/	-ui-
*	*	*	*	*custos:D	*	*	*
!	!	!LO:LB:g=original	!	!	!	!	!
2G\	.	1d\	et	2G/	.	2B-/	-fi-
!	!	!	!	!LO:PB:g=original	!	!	!
2F\	ui-	.	.	4D/	.	1.A/	-can-
.	.	.	.	4E/	.	.	.
2D/	-ui-	2d\	ui-	4F/	.	.	.
.	.	.	.	4G/	.	.	.
=168-	=168-	=168-	=168-	=168-	=168-	=168-	=168-
2F\	-fi-	2c\	-ui-	2A/	et	.	.
2G\	-can-	2B-\	-fi-	2B-\	ui-	2G/	-te(m)
1E\	-tem;	1c\	-can-	1G/	-ui-	2r	.
.	.	.	.	.	.	2g\	qui
=169-	=169-	=169-	=169-	=169-	=169-	=169-	=169-
1D\	.	0d\	-te(m);	1A\	-fi-	2g\	ex
.	.	.	.	.	.	2f\	p(at)-
2r	.	.	.	2G/	-can-	2g\	-re
2G\	qui	.	.	2.B-\	.	2.d\	fi-
=170-	=170-	=170-	=170-	=170-	=170-	=170-	=170-
2G\	ex	1r	.	.	.	.	.
.	.	.	.	4B-\	-te(m);	4e\	-li-
2F\	p(at)-	.	.	2A/	qui	2f\	-o-
2G\	-re	2.d\	qui	2G/	ex	2B-/	.
2D/	fi-	.	.	2B-\	p(at)-	2f\	-q(ue)
.	.	4d\	ex	.	.	.	.
=171-	=171-	=171-	=171-	=171-	=171-	=171-	=171-
*	*	*	*	*	*	*custos:f	*
2E\	-li-	2c\	p(at)-	2B-\	-re	2g\	pro-
!	!	!	!	!	!	!LO:PB:g=original	!
2F\	-o-	2c\	-tre,	2A/	fi-	1f\	-ce-
1G\	-q(ue)	2B-\	fi-	2G/	-li-	.	.
.	.	2B-\	-li-	1B-\	-o-	2e\	.
=172-	=172-	=172-	=172-	=172-	=172-	=172-	=172-
*custos:E-	*	*	*	*	*	*	*
1F\	.	1c\	-o-	.	.	2f\	.
.	.	.	.	2A/	-q(ue)	2c/	.
!LO:LB:g=original	!	!	!	!	!	!	!
2.E-X\	pro-	0G/	-q(ue);	2B-/	pro-	1.e\	.
.	.	.	.	2.c\	-ce-	.	.
4D/	.	.	.	.	.	.	.
=173-	=173-	=173-	=173-	=173-	=173-	=173-	=173-
2C/	.	.	.	.	.	.	.
*	*	*	*	*custos:B-	*	*	*
.	.	.	.	4G/	.	.	.
!	!	!	!	!LO:LB:g=original	!	!	!
2BB-/	.	.	.	2B-\	.	2d\	.
1C/	.	0r	.	2A/	.	2.c/	.
.	.	.	.	2.G/	.	.	.
.	.	.	.	.	.	4B-/	.
=174-	=174-	=174-	=174-	=174-	=174-	=174-	=174-
2D/	.	.	.	.	.	2A/	.
.	.	.	.	4F/	.	.	.
2BB-/	-se-	.	.	1F/	.	2B-/	-dit;
1C/	-dit,	2.c\	qui	.	.	2G/	qui
.	.	.	.	4E/	.	1g\	.
.	.	4c\	cu(m)	4D/	.	.	.
=175-	=175-	=175-	=175-	=175-	=175-	=175-	=175-
1r	.	2c\	p(at)-	2E/	-dit;	.	.
.	.	2c\	-re,	2A/	Qui	2e\	cu(m)
*	*	*custos:d	*	*	*	*	*
1D\	qui	1d\	et	2A/	cu(m)	1f\	p(at)-
.	.	.	.	2A/	p(at)-	.	.
!	!	!LO:LB:g=original	!	!	!	!	!
=176-	=176-	=176-	=176-	=176-	=176-	=176-	=176-
1G\	cu(m)	1d\	fi-	2.B-\	-re-	2.g\	-re
.	.	.	.	4A/	.	4f\	et
1C/	p(at)-	1c\	-li-	2G/	-et	2e\	fi-
.	.	.	.	2G/	fi-	2e\	-li-
=177-	=177-	=177-	=177-	=177-	=177-	=177-	=177-
1.G\	-re	1B-\	-o;	2G/	-li-	2.d\	-o
.	.	.	.	1B-\	-o	.	.
.	.	.	.	.	.	4c/	.
.	.	1r	.	.	.	4d/	.
*	*	*	*	*	*	*custos:f	*
.	.	.	.	.	.	4e\	.
!	!	!	!	!	!	!LO:LB:g=original	!
4F\	et	.	.	4A/	.	2.f\	ſi-
4Eny\	.	.	.	4G/	.	.	.
=178-	=178-	=178-	=178-	=178-	=178-	=178-	=178-
2D/	fi-	1B-\	ſi-	2F/	.	.	.
.	.	.	.	.	.	4d\	-mul
*	*	*	*	*custos:G	*	*	*
2D/	-li-	.	.	2F/	ſi-	1f\	a-
!	!	!	!	!LO:LB:g=original	!	!	!
1C/	-o,	0c\	-mul	1G/	.	.	.
.	.	.	.	.	.	2e\	-do-
=179-	=179-	=179-	=179-	=179-	=179-	=179-	=179-
0r	.	.	.	2F/	-mul	2f\	-ra-
.	.	.	.	2A/	a-	2.e\	.
.	.	1B-\	a-	2.G/	-do-	.	.
.	.	.	.	.	.	4d\	.
.	.	.	.	.	.	1d\	-tur;
.	.	.	.	4F/	-ra-	.	.
=180-	=180-	=180-	=180-	=180-	=180-	=180-	=180-
*custos:D	*	*	*	*	*	*	*
1AA/	et	0A\	-do-	1E/	-tur;	.	.
.	.	.	.	.	.	2c/	.
!LO:LB:g=original	!	!	!	!	!	!	!
1D\	con-	.	.	2r	.	2d\	et
.	.	.	.	2F/	et	2d\	con-
=181-	=181-	=181-	=181-	=181-	=181-	=181-	=181-
1GG/	-glo-	1G/	-ra-	2B-\	.	2d\	-glo-
.	.	.	.	2B-\	con-	2d\	-ri-
1.D\	-ri-	1F/	-tur;	2.A/	-glo-	2.f\	.
.	.	.	.	4G/	.	4e\	.
=182-	=182-	=182-	=182-	=182-	=182-	=182-	=182-
.	.	1A\	et	2F/	-ri-	2d\	-fi-
2C/	-fi-	.	.	2E/	.	2e\	-ca-
2BB-/	.	2.B-\	con-	2F/	.	0d\	-t(ur)
2GG/	.	.	.	2G/	.	.	.
.	.	4B-\	-glo-	.	.	.	.
=183-	=183-	=183-	=183-	=183-	=183-	=183-	=183-
2.BB-/	-ca-	2B-\	-ri-	2F/	.	.	.
.	.	2B-\	-fi-	2.G/	.	.	.
4C/	.	.	.	.	.	.	.
1D\	.	1A\	-ca-	.	.	2r	.
.	.	.	.	4F/	-fi-	.	.
.	.	.	.	2F/	-ca-	1d\	qui
=184-	=184-	=184-	=184-	=184-	=184-	=184-	=184-
*	*	*	*	*custos:d	*	*	*
2BB-/	.	0G/	-t(ur);	1G/	-tur;	.	.
*	*	*	*	*	*	*custos:d	*
2C/	.	.	.	.	.	2e\	lo-
!	!	!	!	!LO:LB:g=original	!	!LO:LB:g=original	!
1GG/	-tur,	.	.	2r	.	2.d\	-cu-
.	.	.	.	1d\	qui	.	.
.	.	.	.	.	.	4c/	.
=185-	=185-	=185-	=185-	=185-	=185-	=185-	=185-
1r	.	00r	.	.	.	2B-/	-tus
.	.	.	.	2e\	.	2c/	.
2r	.	.	.	2.d\	lo-	4G/	eſt
.	.	.	.	.	.	4A/	.
1G\	qui	.	.	.	.	4B-/	.
.	.	.	.	4c\	-cu-	4c/	.
=186-	=186-	=186-	=186-	=186-	=186-	=186-	=186-
.	.	.	.	2B-\	-tus	4d\	.
.	.	.	.	.	.	4e\	.
2A\	lo-	.	.	1c\	eſt	2f\	.
2.G\	-cu-	.	.	.	.	2e\	per
.	.	.	.	2B-\	.	1d\	pro-
4F\	.	.	.	.	.	.	.
=187-	=187-	=187-	=187-	=187-	=187-	=187-	=187-
2E\	-tus	0r	.	2G/	per-	.	.
2.F\	e(st)	.	.	2.A/	.	4c/	.
.	.	.	.	.	.	4B-/	.
.	.	.	.	.	.	4c/	-phe-
*custos:G	*	*	*	*	*	*	*
4D/	per	.	.	4F/	-pro-	4d/	.
!LO:PB:g=original	!	!	!	!	!	!	!
2.G\	pro-	.	.	2.B-\	-phe-	2.e\	.
=188-	=188-	=188-	=188-	=188-	=188-	=188-	=188-
.	.	1r	.	.	.	.	.
4F\	.	.	.	4A/	.	4d\	.
4E/	-phe-	.	.	4G/	.	1d\	.
4D/	.	.	.	4F/	-tas;	.	.
1E\	-tas;	2r	.	1G/	.	.	.
*	*	*custos:F	*	*	*	*custos:d	*
.	.	1G/	Et	.	.	2c/	.
!	!	!LO:PB:g=original	!	!	!	!LO:LB:g=original	!
=189-	=189-	=189-	=189-	=189-	=189-	=189-	=189-
1D\	.	.	.	2r	.	00d\	-tas
.	.	2F/	u-	2A/	Et	.	.
0r	.	2G/	-nam	2G/	u-	.	.
.	.	2A/	.	2F/	-na(m)	.	.
=190-	=190-	=190-	=190-	=190-	=190-	=190-	=190-
.	.	2.B-\	ſan-	1G/	ſan-	.	.
.	.	4c\	.	.	.	.	.
*	*	*	*	*custos:A	*	*	*
2r	.	4d\	-ctam	1D/	-cta(m),	.	.
.	.	4e\	.	.	.	.	.
1D\	Et	1f\	.	.	.	.	.
=191-	=191-	=191-	=191-	=191-	=191-	=191-	=191-
.	.	.	.	2r	.	00r	.
!	!	!	!	!LO:PB:g=original	!	!	!
*	*	*	*	*	*ij	*	*
2C/	u-	2e\	ca-	1A\	ſan-	.	.
2D/	.	2f\	-tho-	.	.	.	.
2E\	-nam-	4e\	-li-	2G/	.	.	.
.	.	4d\	.	.	.	.	.
=192-	=192-	=192-	=192-	=192-	=192-	=192-	=192-
1.F\	-ſan-	2.c\	.	2A/	-cta(m)	.	.
*	*	*	*	*	*Xij	*	*
.	.	.	.	2B-\	ca-	.	.
.	.	4B-/	.	.	.	.	.
.	.	2A/	.	1.c\	-tho-	.	.
2E\	.	2G/	.	.	.	.	.
=193-	=193-	=193-	=193-	=193-	=193-	=193-	=193-
2F\	-cta(m)	2A/	-ca(m),	.	.	2r	.
2G\	.	2G/	.	2B-\	.	1d\	Et
2D/	ca-	2r	.	2.A/	-li-	.	.
1F\	-tho-	2A/	et	.	.	2c\	u-
.	.	.	.	4G/	-cam	.	.
=194-	=194-	=194-	=194-	=194-	=194-	=194-	=194-
.	.	2A/	a-	2F/	.	2d\	-nam
*	*	*custos:A	*	*	*	*	*
2E/	-li-	2G/	-po-	2G/	.	2e\	ſanc-
!	!	!LO:LB:g=original	!	!	!	!	!
1D\	-cam;	2A/	-ſto-	1F/	.	1.f\	-ta(m)
.	.	2B-\	-li-	.	.	.	.
=195-	=195-	=195-	=195-	=195-	=195-	=195-	=195-
*custos:D	*	*	*	*	*	*	*
1C/	.	1.c\	-cam	2r	.	.	.
.	.	.	.	2A/	et	2e\	ca-
1r	.	.	.	2A/	a-	2f\	-tho-
.	.	2B-\	Ec-	2G/	-po-	2g\	-li-
=196-	=196-	=196-	=196-	=196-	=196-	=196-	=196-
2r	.	2c\	-cle-	2A/	-ſto-	1f\	-ca(m),
!LO:LB:g=original	!	!	!	!	!	!	!
2D/	et	1d\	.	2B-/	-li-	.	.
2D/	a-	.	.	2A/	-cam	0r	.
2C/	-po-	2e\	-ſi-	2c\	ec-	.	.
=197-	=197-	=197-	=197-	=197-	=197-	=197-	=197-
2D/	-ſto-	2f\	-am;	2.B-\	-cle-	.	.
2E\	-li-	4e\	.	.	.	.	.
*	*	*	*	*custos:A	*	*	*
.	.	4d\	.	4B-\	-ſi-	.	.
!	!	!	!	!LO:LB:g=original	!	!	!
1.F\	-cam-	1c\	.	1A\	-am	2r	.
.	.	.	.	.	.	2A/	et
=198-	=198-	=198-	=198-	=198-	=198-	=198-	=198-
.	.	2r	.	1c\	.	2A/	a-
*	*	*	*ij	*	*	*	*
2E\	.	2G/	et	.	.	2G/	-po-
1D\	-ec-	2G/	a-	1d\	ec-	2A/	-ſto-
.	.	2F/	-po-	.	.	2B-/	-li-
=199-	=199-	=199-	=199-	=199-	=199-	=199-	=199-
2C/	-cle-	2G/	-ſto-	2e\	-cle-	1c\	-ca(m)
2F\	-ſi-	2A/	-li-	2.f\	.	.	.
1BB-/	-am;	1.B-\	-cam	.	.	2.d\	Ec-
.	.	.	.	4e\	.	.	.
.	.	.	.	4d\	.	.	.
.	.	.	.	4c\	.	4e\	.
=200-	=200-	=200-	=200-	=200-	=200-	=200-	=200-
0r	.	.	.	2d\	.	4f\	.
*	*	*	*	*	*	*custos:e	*
.	.	.	.	.	.	4d\	.
!	!	!	!	!	!	!LO:PB:g=original	!
.	.	2A/	Ec-	2c\	.	2.e\	.
.	.	2.G/	-cle-	1B-\	-ſi-	.	.
.	.	.	.	.	.	4d\	-cle-
.	.	.	.	.	.	1d\	-ſi-
*	*	*custos:E	*	*	*	*	*
.	.	4F/	-ſi-	.	.	.	.
!	!	!LO:LB:g=original	!	!	!	!	!
=201-	=201-	=201-	=201-	=201-	=201-	=201-	=201-
1AA/	con-	1E/	-am	1A\	-am;	.	.
*	*	*	*Xij	*	*	*	*
.	.	.	.	.	.	2c/	-am
2.BB-/	-fi-	1D/	.	2r	.	1d\	.
.	.	.	.	2F/	con-	.	.
4BB-/	-te-	.	.	.	.	.	.
=202-	=202-	=202-	=202-	=202-	=202-	=202-	=202-
2BB-/	-or	1r	.	2F/	-fi-	1r	.
2AA/	u-	.	.	2F/	-te-	.	.
1GG/	-nu(m)	1B-\	Con-	2.G/	-or	2r	.
.	.	.	.	.	.	2d\	Con-
.	.	.	.	4G/	u-	.	.
=203-	=203-	=203-	=203-	=203-	=203-	=203-	=203-
1D\	bap-	1F/	-fi-	2A/	-nu(m)	2d\	-fi-
.	.	.	.	2B-\	bap-	2d\	-te-
*	*	*	*	*custos:B-	*	*	*
1C/	-ti-	1G/	-te-	1c\	-ti-	1e\	-or
!	!	!	!	!LO:LB:g=original	!	!	!
=204-	=204-	=204-	=204-	=204-	=204-	=204-	=204-
*custos:G	*	*	*	*	*	*	*
2GG/	-ſma,	1G/	-or	1B-\	-ſma	2.d\	u-
!LO:LB:g=original	!	!	!	!	!	!	!
1G\	bap-	.	.	.	.	.	.
.	.	.	.	.	.	4c/	-num
.	.	1d\	u-	0r	.	2B-/	.
2F\	-ti-	.	.	.	.	2A/	.
=205-	=205-	=205-	=205-	=205-	=205-	=205-	=205-
1G\	-ſma,	2d\	-nu(m)	.	.	1B-/	bap-
.	.	2d\	bap-	.	.	.	.
1C/	bap-	1e\	-ti-	2r	.	2.c/	-tiſ-
.	.	.	.	1G/	in	.	.
.	.	.	.	.	.	4B-/	.
=206-	=206-	=206-	=206-	=206-	=206-	=206-	=206-
1D\	-ti-	0d\	-ſma	.	.	1A/	-ma
.	.	.	.	2F/	re-	.	.
1GG/	-ſma,	.	.	2.B-\	-miſ-	2r	.
.	.	.	.	.	.	1G/	in
.	.	.	.	4B-\	-si-	.	.
=207-	=207-	=207-	=207-	=207-	=207-	=207-	=207-
2r	.	00r	.	2B-\	-o-	.	.
1D\	in	.	.	2A/	-nem	4F/	.
*	*	*	*	*	*	*custos:F	*
.	.	.	.	.	.	4E/	.
!	!	!	!	!	!	!LO:LB:g=original	!
.	.	.	.	2B-/	.	2F/	re-
2C/	re-	.	.	2.c\	pec-	2G/	-miſ-
=208-	=208-	=208-	=208-	=208-	=208-	=208-	=208-
2.F\	-miſ-	.	.	.	.	2.A/	-si-
.	.	.	.	4B-\	-ca-	.	.
.	.	.	.	4A/	.	.	.
4F\	-si-	.	.	4G/	.	4B-/	-o-
2F\	-o-	.	.	2A/	.	4c/	-nem
.	.	.	.	.	.	4d/	.
2E\	-ne(m)	.	.	2G/	-to-	2c/	.
=209-	=209-	=209-	=209-	=209-	=209-	=209-	=209-
2.D/	.	1d\	pec-	1F/	-ru(m);	2B-/	.
.	.	.	.	.	.	1A/	pec-
4E\	.	.	.	.	.	.	.
2F\	pec-	2c\	-ca-	2r	.	.	.
2G\	-ca-	2B-\	.	2d\	et	4G/	-ca-
.	.	.	.	.	.	4F/	.
=210-	=210-	=210-	=210-	=210-	=210-	=210-	=210-
1E\	-to-	1c\	-to-	1e\	ex-	1G/	-to-
*	*	*	*	*custos:B-	*	*	*
1D\	-ru(m);	0d\	-ru(m);	1f\	-pe-	1A/	-ru(m);
!	!	!	!	!LO:LB:g=original	!	!	!
=211-	=211-	=211-	=211-	=211-	=211-	=211-	=211-
0G\	et	.	.	0B-\	-cto	2r	.
.	.	.	.	.	.	1d\	et
.	.	1r	.	.	.	.	.
.	.	.	.	.	.	1e\	ex-
=212-	=212-	=212-	=212-	=212-	=212-	=212-	=212-
*custos:B-	*	*	*	*	*	*	*
1A\	ex-	0r	.	1c\	re-	.	.
.	.	.	.	.	.	1f\	-pec-
!LO:LB:g=original	!	!	!	!	!	!	!
2.B-\	-pec-	.	.	2.d\	-ſur-	.	.
.	.	.	.	.	.	2.d\	-to
4A\	.	.	.	4c\	.	.	.
=213-	=213-	=213-	=213-	=213-	=213-	=213-	=213-
2G\	-to	2.d\	re-	2B-\	-rec-	.	.
.	.	.	.	.	.	4e\	.
*	*	*	*	*	*	*custos:B-	*
2F\	re-	.	.	2A/	-ti-	2f\	.
.	.	4d\	-ſur-	.	.	.	.
!	!	!	!	!	!	!LO:LB:g=original	!
1G\	-ſur-	2d\	-rec-	2G/	-o-	2.B-/	re-
*	*	*custos:d	*	*	*	*	*
.	.	2d\	-ti-	1B-\	-nem	.	.
.	.	.	.	.	.	4c/	.
!	!	!LO:LB:g=original	!	!	!	!	!
=214-	=214-	=214-	=214-	=214-	=214-	=214-	=214-
2G\	-rec-	1d\	-o-	.	.	4d\	.
.	.	.	.	.	.	4e\	.
2.F\	-ti-	.	.	2.A/	mor-	1f\	-ſur-
.	.	1c\	-nem	.	.	.	.
4E\	-o-	.	.	4G/	.	.	.
2C/	-nem	.	.	1G/	-tu-	2e\	-rec-
=215-	=215-	=215-	=215-	=215-	=215-	=215-	=215-
1D\	.	2B-\	mor-	.	.	2d\	-ti-
.	.	2B-\	-tu-	2F/	.	2f\	-o-
2C/	.	1c\	-o-	2.G/	.	2e\	-ne(m)
2.E\	mor-	.	.	.	.	2.g\	mor-
.	.	.	.	4A/	.	.	.
=216-	=216-	=216-	=216-	=216-	=216-	=216-	=216-
.	.	00G/	-ru(m);	4B-\	.	.	.
4D/	.	.	.	4c\	.	4f\	.
2BB-/	-tu-	.	.	2.d\	.	2d\	-tu-
1C/	-o-	.	.	.	.	1e\	-o-
.	.	.	.	4c\	.	.	.
.	.	.	.	1c\	.	.	.
=217-	=217-	=217-	=217-	=217-	=217-	=217-	=217-
0GG/	-rum,	.	.	.	.	1d\	-ru(m);
.	.	.	.	4B-\	.	.	.
*	*	*	*	*custos:B-	*	*	*
.	.	.	.	4A\	.	.	.
!	!	!	!	!LO:PB:g=original	!	!	!
.	.	.	.	1B-\	-rum;	2r	.
.	.	.	.	.	.	1d\	Et
=218-	=218-	=218-	=218-	=218-	=218-	=218-	=218-
1G\	Et	00r	.	2r	.	.	.
.	.	.	.	2B-\	et	1e\	.
1A\	ui-	.	.	1c\	.	.	.
.	.	.	.	.	.	2c/	ui-
=219-	=219-	=219-	=219-	=219-	=219-	=219-	=219-
2F\	.	.	.	2A/	ui-	2d\	-tam
*custos:A	*	*	*	*	*	*	*
2G\	-ta(m)	.	.	2B-\	-tam	2e\	.
*	*	*	*	*	*	*custos:d	*
!LO:PB:g=original	!	!	!	!	!	!	!
2A\	ue(n)-	.	.	2c\	.	0f\	.
2.B-\	-tu-	.	.	2.d\	uen-	.	.
=220-	=220-	=220-	=220-	=220-	=220-	=220-	=220-
.	.	0r	.	.	.	.	.
4A\	.	.	.	4c\	-tu-	.	.
2F\	.	.	.	1c\	-ri	.	.
!	!	!	!	!	!	!LO:LB:g=original	!
1G\	.	.	.	.	.	1d\	uen-
.	.	.	.	2B-/	ſe-	.	.
=221-	=221-	=221-	=221-	=221-	=221-	=221-	=221-
1C/	-ri	0c\	et	2A/	-cu-	1e\	-tu-
.	.	.	.	2G/	-li	.	.
2.F\	ſe-	.	.	2.A/	A-	0f\	-ri
4E/	-cu-	.	.	4G/	.	.	.
=222-	=222-	=222-	=222-	=222-	=222-	=222-	=222-
2D/	-li	1d\	.	4A/	.	.	.
.	.	.	.	4F/	.	.	.
2BB-/	.	.	.	1B-\	.	.	.
1F\	a-	1c\	ui-	.	.	2r	.
.	.	.	.	2A/	.	2.f\	ſe-
=223-	=223-	=223-	=223-	=223-	=223-	=223-	=223-
2BB-/	-me(n)	0B-\	-ta(m)	1B-\	-men	.	.
.	.	.	.	.	.	4e\	-cu-
2.B-\	A-	.	.	.	.	4d\	.
.	.	.	.	.	.	4c/	-li-
.	.	.	.	2r	.	2d\	.
4A\	.	.	.	.	.	.	.
*	*	*	*	*	*ij	*	*
4G\	.	.	.	2.B-\	et	2.g\	-A-
4F\	.	.	.	.	.	.	.
=224-	=224-	=224-	=224-	=224-	=224-	=224-	=224-
2G\	.	1r	.	.	.	.	.
*	*	*	*	*custos:G	*	*	*
.	.	.	.	4A/	.	4f\	.
!	!	!	!	!LO:LB:g=original	!	!	!
2C/	.	.	.	2.G/	ui-	4g\	.
.	.	.	.	.	.	4e\	.
*custos:C	*	*	*	*	*	*	*
1D\	.	1B-\	uen-	.	.	1f\	.
.	.	.	.	4F/	.	.	.
.	.	.	.	2F/	-tam	.	.
!LO:LB:g=original	!	!	!	!	!	!	!
=225-	=225-	=225-	=225-	=225-	=225-	=225-	=225-
2.C/	.	1c\	-tu-	1.G/	uen-	2e\	.
.	.	.	.	.	.	2.g\	.
4BB-/	.	.	.	.	.	.	.
4GG/	.	1B-\	-ri	.	.	.	.
4AA/	.	.	.	.	.	4f\	.
4BB-/	.	.	.	2F/	.	2d/	.
4C/	.	.	.	.	.	.	.
=226-	=226-	=226-	=226-	=226-	=226-	=226-	=226-
4D/	.	0A\	ſ(e)-	2F/	-tu-	2.f\	.
4E\	.	.	.	.	.	.	.
1F\	.	.	.	2D/	.	.	.
.	.	.	.	.	.	4e\	.
*	*	*	*	*	*	*custos:d	*
.	.	.	.	1F/	-ri	2c/	.
!	!	!	!	!	!	!LO:PB:g=original	!
2D/	.	.	.	.	.	1d\	.
=227-	=227-	=227-	=227-	=227-	=227-	=227-	=227-
1E\	-me(n)	1G/	-c(u)-	2.G/	ſe-	.	.
.	.	.	.	.	.	2c/	.
.	.	.	.	4A/	.	.	.
1.D\	A-	1F/	-li	2B-/	-cu-	0d\	-men
.	.	.	.	2A/	-li	.	.
*	*	*	*	*	*Xij	*	*
=228-	=228-	=228-	=228-	=228-	=228-	=228-	=228-
.	.	2A/	A-	2F/	A-	.	.
2BB-/	.	2B-\	.	1G/	.	.	.
2C/	.	1A\	.	.	.	2r	.
2D/	.	.	.	2F/	.	1d\	ſe-
=229-	=229-	=229-	=229-	=229-	=229-	=229-	=229-
1GG/	.	00.Gl/	-men	2.G/	.	.	.
.	.	.	.	.	.	2B-/	-cu-
.	.	.	.	4F/	.	.	.
2C/	.	.	.	2E/	.	2c/	-li
2BB-/	.	.	.	2D/	.	1d\	A-
=230-	=230-	=230-	=230-	=230-	=230-	=230-	=230-
0C/	.	.	.	0E/	-men;	.	.
.	.	.	.	.	.	4c/	.
.	.	.	.	.	.	4B-/	.
.	.	.	.	.	.	1c\	.
=231-	=231-	=231-	=231-	=231-	=231-	=231-	=231-
0GGl/	-men:	.	.	0Dl/	.	0B-/	-men
==	==	==	==	==	==	==	==
*-	*-	*-	*-	*-	*-	*-	*-
!!!system-decoration: s1,s2,s3,s4
!!!RDF**kern: l = terminal long
!!!ENC: Mateusz Solarz
!!!END: 2022-02-08
!!!AIN: 3 empty 1 tenor
!!!ENC: Leszek Kubiak
!!!END: 2022-02-11
